X:5
T:Suitte
M:3
Q:"Gay sans vitesse"
K:C
%%staves [1 2]
V:1
e2 | e3fe2 | !!d4g2 | f2gfed | !!e2c2e2 | e3fe2 | !!d4g2 | f2gfed | c4 :| g2 | c'3bc'2 | g4g2 | f2e2d2 |
!!e2c2g2 | c'3ba2 | b2a2d'2 | c'b!!a3g | g4e2 | e3fe2 | !!d4g2 | f2gfed | e2c2e2 | e3fe2 | !!d4g2 | f2gfed | c4 |]
V:2
c2 | c3dc2 | !!B4e2 | d2edcB | uc2G2c2 | c3dc2 | !!B4e2 | d2edcB | uc4 :| e2 | e3dc2 | e3de2 | f2e2d2 |
c4e2 | e3e^f2 | g2^f2g2 | ag!!^f3g | g4c2 | c3dc2 | !!B4e2 | d2edcB | c2G2c2 | c3dc2 | !!B4e2 | d2edcB | c4 |]
